X:75
T:Flower of Magherally, The
R:song
Z:id:hn-song-75
M:3/4
L:1/8
Q:1/4=120
K:Gdor
D2 | B2 B4 | A4 F2 | (G3AGF) | D4 (GA) | B4 d2 | c4 A2 | BA G4- | G6 |
B4 B2 | A4 F2 | (G3AGF) | D4 GA | B4 d2 | c4 A2 | BA G4- | G4
(Bc) | d4 d2 | d4 (cB) | c4 c2 | c4 (Bc) | d4 G2 | (G3F) E2 | F2 G4 | D6 |
d4 G2 | G4 FE | F4 (DC) | D4 (CA,) | C4 D2 | F4 G2 | (A4{BA}) G2 | G4 ||
W:One pleasant summer's morning when all the flowers were springing O
W:Nature was a-dawning and the wee birds sweetly singing O
W:I met my love near Banbridge Town, my charming blue-eyed Sally O
W:She's the queen of the County Down, the flower of Magherally O
W:
W:With admiration I did gaze upon this blue-eyed maiden O
W:Adam wasn't half as pleased when he first met Eve in Eden O
W:Her skin was like the lily white that grows in yonder valley O
W:She's my queen and my heart's delight, the flower of Magherally O
W:
W:Her yellow hair in ringlets hung, her boots were Spanish leather O
W:Her bonnet with blue ribbons strung, her scarlet scarf and feather O
W:Like Venus bright she did appear, my charming blue-eyed Sally O
W:She's the girl that I love dear, the flower of Magherally O
W:
W:I hope the day will surely come when we'll join hands together O
W:'Tis then I'll bring my darling home in spite of wind and weather O
W:And let them all say what they will and let them reel and rally O
W:For I shall wed the girl I love, the flower of Magherally O

